X: 1
T:Three-Handed Reel, Bromsberrow Heath
M:4/4
L:1/8
R:Hornpipe
A:Bromsberrow Heath
P:A(A2B)4
K:G
P:A
z/F/|G2G>E  D2G>B|A>GF>E  D2-DA|B2B2  A2B2|A>GF>E D2E>F|
G>FG>E  D2G>B|A>GF>E  D2 B2|B>dB>G  A>cA>F|G2G2 G2z ||
P:B
z|d2-d>BG>B d2|e2-e>c A2 A>B|d2-d>B G2G>B|A>GF>E D2E>F|
G>FG>E  D2G>B|A>GF>E  D2 B2|B>dB>G  A>cAF|G2G2 G2z ||
